X: 17675
T: Holly Bush, The
R: jig
M: 6/8
K: Dmixolydian
A|:FED c2A|dcd efg|fed BAG|F/G/AF GFE|
FED c2A|d2 d efg|fed BAF|ABc d2A:|
|:daa daa|daa agf|egg egg|egg gfe|
f2 f gfg|fed cAG|FED BAF|1 ABc d2A:|2 ABc d2A|

